images/3235485.svg

<?xml version="1.0" encoding="UTF-8"?>
<svg xmlns="http://www.w3.org/2000/svg" xmlns:xlink="http://www.w3.org/1999/xlink" width="300pt" height="300pt" viewBox="0 0 300 300" version="1.1">
<defs>
<g>
<symbol overflow="visible" id="glyph0-0">
<path style="stroke:none;" d="M 0.546875 1.9375 L 0.546875 -7.75 L 6.046875 -7.75 L 6.046875 1.9375 Z M 1.171875 1.328125 L 5.4375 1.328125 L 5.4375 -7.140625 L 1.171875 -7.140625 Z M 1.171875 1.328125 "/>
</symbol>
<symbol overflow="visible" id="glyph0-1">
<path style="stroke:none;" d="M 1.078125 -8.015625 L 2.546875 -8.015625 L 6.09375 -1.3125 L 6.09375 -8.015625 L 7.15625 -8.015625 L 7.15625 0 L 5.6875 0 L 2.125 -6.703125 L 2.125 0 L 1.078125 0 Z M 1.078125 -8.015625 "/>
</symbol>
<symbol overflow="visible" id="glyph0-2">
<path style="stroke:none;" d="M 4.328125 -7.28125 C 3.546875 -7.28125 2.921875 -6.984375 2.453125 -6.390625 C 1.992188 -5.804688 1.765625 -5.007812 1.765625 -4 C 1.765625 -2.988281 1.992188 -2.1875 2.453125 -1.59375 C 2.921875 -1.007812 3.546875 -0.71875 4.328125 -0.71875 C 5.117188 -0.71875 5.742188 -1.007812 6.203125 -1.59375 C 6.660156 -2.1875 6.890625 -2.988281 6.890625 -4 C 6.890625 -5.007812 6.660156 -5.804688 6.203125 -6.390625 C 5.742188 -6.984375 5.117188 -7.28125 4.328125 -7.28125 Z M 4.328125 -8.171875 C 5.453125 -8.171875 6.351562 -7.789062 7.03125 -7.03125 C 7.707031 -6.28125 8.046875 -5.269531 8.046875 -4 C 8.046875 -2.738281 7.707031 -1.726562 7.03125 -0.96875 C 6.351562 -0.21875 5.453125 0.15625 4.328125 0.15625 C 3.203125 0.15625 2.300781 -0.21875 1.625 -0.96875 C 0.957031 -1.71875 0.625 -2.726562 0.625 -4 C 0.625 -5.269531 0.957031 -6.28125 1.625 -7.03125 C 2.300781 -7.789062 3.203125 -8.171875 4.328125 -8.171875 Z M 4.328125 -8.171875 "/>
</symbol>
<symbol overflow="visible" id="glyph0-3">
<path style="stroke:none;" d="M 1.078125 -8.015625 L 2.171875 -8.015625 L 2.171875 -4.734375 L 6.109375 -4.734375 L 6.109375 -8.015625 L 7.1875 -8.015625 L 7.1875 0 L 6.109375 0 L 6.109375 -3.8125 L 2.171875 -3.8125 L 2.171875 0 L 1.078125 0 Z M 1.078125 -8.015625 "/>
</symbol>
</g>
</defs>
<g id="surface31953">
<rect x="0" y="0" width="300" height="300" style="fill:rgb(100%,100%,100%);fill-opacity:1;stroke:none;"/>
<path style="fill:none;stroke-width:1.2;stroke-linecap:butt;stroke-linejoin:miter;stroke:rgb(0%,0%,0%);stroke-opacity:1;stroke-miterlimit:10;" d="M 151.894531 57.472656 L 143.5625 68.167969 "/>
<path style="fill:none;stroke-width:1.2;stroke-linecap:butt;stroke-linejoin:miter;stroke:rgb(0%,0%,100%);stroke-opacity:1;stroke-miterlimit:10;" d="M 143.5625 68.167969 L 135.230469 78.867188 "/>
<path style="fill:none;stroke-width:1.2;stroke-linecap:butt;stroke-linejoin:miter;stroke:rgb(0%,0%,100%);stroke-opacity:1;stroke-miterlimit:10;" d="M 135.230469 78.867188 L 121.800781 77 "/>
<path style="fill:none;stroke-width:1.2;stroke-linecap:butt;stroke-linejoin:miter;stroke:rgb(0%,0%,0%);stroke-opacity:1;stroke-miterlimit:10;" d="M 121.800781 77 L 108.371094 75.132812 "/>
<path style="fill:none;stroke-width:1.2;stroke-linecap:butt;stroke-linejoin:miter;stroke:rgb(0%,0%,100%);stroke-opacity:1;stroke-miterlimit:10;" d="M 135.230469 78.867188 L 140.328125 91.429688 "/>
<path style="fill:none;stroke-width:1.2;stroke-linecap:butt;stroke-linejoin:miter;stroke:rgb(0%,0%,0%);stroke-opacity:1;stroke-miterlimit:10;" d="M 140.328125 91.429688 L 145.429688 103.996094 "/>
<path style=" stroke:none;fill-rule:nonzero;fill:rgb(100%,100%,100%);fill-opacity:1;" d="M 131.230469 72.367188 L 139.230469 72.367188 L 139.230469 85.367188 L 131.230469 85.367188 Z M 131.230469 72.367188 "/>
<g style="fill:rgb(0%,0%,100%);fill-opacity:1;">
  <use xlink:href="#glyph0-1" x="131.230469" y="82.268555"/>
</g>
<path style="fill:none;stroke-width:1.2;stroke-linecap:butt;stroke-linejoin:miter;stroke:rgb(0%,0%,0%);stroke-opacity:1;stroke-miterlimit:10;" d="M 144.988281 107.15625 L 158.417969 109.023438 "/>
<path style="fill:none;stroke-width:1.2;stroke-linecap:butt;stroke-linejoin:miter;stroke:rgb(100%,0%,0%);stroke-opacity:1;stroke-miterlimit:10;" d="M 158.417969 109.023438 L 171.847656 110.886719 "/>
<path style="fill:none;stroke-width:1.2;stroke-linecap:butt;stroke-linejoin:miter;stroke:rgb(0%,0%,0%);stroke-opacity:1;stroke-miterlimit:10;" d="M 145.867188 100.835938 L 159.296875 102.703125 "/>
<path style="fill:none;stroke-width:1.2;stroke-linecap:butt;stroke-linejoin:miter;stroke:rgb(100%,0%,0%);stroke-opacity:1;stroke-miterlimit:10;" d="M 159.296875 102.703125 L 172.726562 104.566406 "/>
<path style="fill:none;stroke-width:1.2;stroke-linecap:butt;stroke-linejoin:miter;stroke:rgb(0%,0%,0%);stroke-opacity:1;stroke-miterlimit:10;" d="M 145.429688 103.996094 L 128.765625 125.390625 "/>
<path style=" stroke:none;fill-rule:nonzero;fill:rgb(100%,100%,100%);fill-opacity:1;" d="M 168.289062 101.226562 L 177.289062 101.226562 L 177.289062 114.226562 L 168.289062 114.226562 Z M 168.289062 101.226562 "/>
<g style="fill:rgb(100%,0%,0%);fill-opacity:1;">
  <use xlink:href="#glyph0-2" x="168.289062" y="111.12793"/>
</g>
<path style="fill:none;stroke-width:1.2;stroke-linecap:butt;stroke-linejoin:miter;stroke:rgb(0%,0%,0%);stroke-opacity:1;stroke-miterlimit:10;" d="M 128.765625 125.390625 L 138.960938 150.519531 "/>
<path style="fill:none;stroke-width:1.2;stroke-linecap:butt;stroke-linejoin:miter;stroke:rgb(0%,0%,0%);stroke-opacity:1;stroke-miterlimit:10;" d="M 123.871094 130.300781 L 132.03125 150.40625 "/>
<path style="fill:none;stroke-width:1.2;stroke-linecap:butt;stroke-linejoin:miter;stroke:rgb(0%,0%,0%);stroke-opacity:1;stroke-miterlimit:10;" d="M 101.902344 121.65625 L 128.765625 125.390625 "/>
<path style="fill:none;stroke-width:1.2;stroke-linecap:butt;stroke-linejoin:miter;stroke:rgb(0%,0%,0%);stroke-opacity:1;stroke-miterlimit:10;" d="M 138.960938 150.519531 L 122.296875 171.914062 "/>
<path style="fill:none;stroke-width:1.2;stroke-linecap:butt;stroke-linejoin:miter;stroke:rgb(0%,0%,0%);stroke-opacity:1;stroke-miterlimit:10;" d="M 122.296875 171.914062 L 95.4375 168.179688 "/>
<path style="fill:none;stroke-width:1.2;stroke-linecap:butt;stroke-linejoin:miter;stroke:rgb(0%,0%,0%);stroke-opacity:1;stroke-miterlimit:10;" d="M 120.492188 165.222656 L 99.003906 162.234375 "/>
<path style="fill:none;stroke-width:1.2;stroke-linecap:butt;stroke-linejoin:miter;stroke:rgb(0%,0%,0%);stroke-opacity:1;stroke-miterlimit:10;" d="M 95.4375 168.179688 L 85.242188 143.050781 "/>
<path style="fill:none;stroke-width:1.2;stroke-linecap:butt;stroke-linejoin:miter;stroke:rgb(0%,0%,0%);stroke-opacity:1;stroke-miterlimit:10;" d="M 95.4375 168.179688 L 78.773438 189.578125 "/>
<path style="fill:none;stroke-width:1.2;stroke-linecap:butt;stroke-linejoin:miter;stroke:rgb(0%,0%,0%);stroke-opacity:1;stroke-miterlimit:10;" d="M 85.242188 143.050781 L 101.902344 121.65625 "/>
<path style="fill:none;stroke-width:1.2;stroke-linecap:butt;stroke-linejoin:miter;stroke:rgb(0%,0%,0%);stroke-opacity:1;stroke-miterlimit:10;" d="M 91.941406 144.832031 L 105.273438 127.71875 "/>
<path style="fill:none;stroke-width:1.2;stroke-linecap:butt;stroke-linejoin:miter;stroke:rgb(0%,0%,0%);stroke-opacity:1;stroke-miterlimit:10;" d="M 78.773438 189.578125 L 51.914062 185.84375 "/>
<path style="fill:none;stroke-width:1.2;stroke-linecap:butt;stroke-linejoin:miter;stroke:rgb(0%,0%,0%);stroke-opacity:1;stroke-miterlimit:10;" d="M 75.210938 195.523438 L 53.722656 192.535156 "/>
<path style="fill:none;stroke-width:1.2;stroke-linecap:butt;stroke-linejoin:miter;stroke:rgb(0%,0%,0%);stroke-opacity:1;stroke-miterlimit:10;" d="M 88.972656 214.707031 L 78.773438 189.578125 "/>
<path style="fill:none;stroke-width:1.2;stroke-linecap:butt;stroke-linejoin:miter;stroke:rgb(0%,0%,0%);stroke-opacity:1;stroke-miterlimit:10;" d="M 51.914062 185.84375 L 43.582031 196.542969 "/>
<path style="fill:none;stroke-width:1.2;stroke-linecap:butt;stroke-linejoin:miter;stroke:rgb(0%,0%,100%);stroke-opacity:1;stroke-miterlimit:10;" d="M 43.582031 196.542969 L 35.25 207.238281 "/>
<path style="fill:none;stroke-width:1.2;stroke-linecap:butt;stroke-linejoin:miter;stroke:rgb(0%,0%,100%);stroke-opacity:1;stroke-miterlimit:10;" d="M 35.25 207.238281 L 40.347656 219.804688 "/>
<path style="fill:none;stroke-width:1.2;stroke-linecap:butt;stroke-linejoin:miter;stroke:rgb(0%,0%,0%);stroke-opacity:1;stroke-miterlimit:10;" d="M 40.347656 219.804688 L 45.449219 232.367188 "/>
<path style="fill:none;stroke-width:1.2;stroke-linecap:butt;stroke-linejoin:miter;stroke:rgb(0%,0%,100%);stroke-opacity:1;stroke-miterlimit:10;" d="M 42.183594 207.351562 L 46.261719 217.402344 "/>
<path style="fill:none;stroke-width:1.2;stroke-linecap:butt;stroke-linejoin:miter;stroke:rgb(0%,0%,0%);stroke-opacity:1;stroke-miterlimit:10;" d="M 46.261719 217.402344 L 50.339844 227.457031 "/>
<path style=" stroke:none;fill-rule:nonzero;fill:rgb(100%,100%,100%);fill-opacity:1;" d="M 31.25 200.738281 L 39.25 200.738281 L 39.25 213.738281 L 31.25 213.738281 Z M 31.25 200.738281 "/>
<g style="fill:rgb(0%,0%,100%);fill-opacity:1;">
  <use xlink:href="#glyph0-1" x="31.25" y="210.639648"/>
</g>
<path style="fill:none;stroke-width:1.2;stroke-linecap:butt;stroke-linejoin:miter;stroke:rgb(0%,0%,0%);stroke-opacity:1;stroke-miterlimit:10;" d="M 45.449219 232.367188 L 58.878906 234.234375 "/>
<path style="fill:none;stroke-width:1.2;stroke-linecap:butt;stroke-linejoin:miter;stroke:rgb(0%,0%,100%);stroke-opacity:1;stroke-miterlimit:10;" d="M 58.878906 234.234375 L 72.308594 236.101562 "/>
<path style="fill:none;stroke-width:1.2;stroke-linecap:butt;stroke-linejoin:miter;stroke:rgb(0%,0%,100%);stroke-opacity:1;stroke-miterlimit:10;" d="M 72.308594 236.101562 L 80.640625 225.402344 "/>
<path style="fill:none;stroke-width:1.2;stroke-linecap:butt;stroke-linejoin:miter;stroke:rgb(0%,0%,0%);stroke-opacity:1;stroke-miterlimit:10;" d="M 80.640625 225.402344 L 88.972656 214.707031 "/>
<path style="fill:none;stroke-width:1.2;stroke-linecap:butt;stroke-linejoin:miter;stroke:rgb(0%,0%,100%);stroke-opacity:1;stroke-miterlimit:10;" d="M 68.941406 230.039062 L 75.605469 221.480469 "/>
<path style="fill:none;stroke-width:1.2;stroke-linecap:butt;stroke-linejoin:miter;stroke:rgb(0%,0%,0%);stroke-opacity:1;stroke-miterlimit:10;" d="M 75.605469 221.480469 L 82.269531 212.925781 "/>
<path style=" stroke:none;fill-rule:nonzero;fill:rgb(100%,100%,100%);fill-opacity:1;" d="M 68.308594 229.601562 L 76.308594 229.601562 L 76.308594 242.601562 L 68.308594 242.601562 Z M 68.308594 229.601562 "/>
<g style="fill:rgb(0%,0%,100%);fill-opacity:1;">
  <use xlink:href="#glyph0-1" x="68.308594" y="239.50293"/>
</g>
<path style="fill:none;stroke-width:1.2;stroke-linecap:butt;stroke-linejoin:miter;stroke:rgb(0%,0%,0%);stroke-opacity:1;stroke-miterlimit:10;" d="M 88.972656 214.707031 L 102.402344 216.570312 "/>
<path style="fill:none;stroke-width:1.2;stroke-linecap:butt;stroke-linejoin:miter;stroke:rgb(0%,0%,100%);stroke-opacity:1;stroke-miterlimit:10;" d="M 102.402344 216.570312 L 115.832031 218.4375 "/>
<path style="fill:none;stroke-width:1.2;stroke-linecap:butt;stroke-linejoin:miter;stroke:rgb(0%,0%,100%);stroke-opacity:1;stroke-miterlimit:10;" d="M 115.832031 218.4375 L 124.164062 207.742188 "/>
<path style="fill:none;stroke-width:1.2;stroke-linecap:butt;stroke-linejoin:miter;stroke:rgb(0%,0%,0%);stroke-opacity:1;stroke-miterlimit:10;" d="M 124.164062 207.742188 L 132.496094 197.042969 "/>
<path style=" stroke:none;fill-rule:nonzero;fill:rgb(100%,100%,100%);fill-opacity:1;" d="M 107.832031 211.9375 L 124.832031 211.9375 L 124.832031 224.9375 L 107.832031 224.9375 Z M 107.832031 211.9375 "/>
<g style="fill:rgb(0%,0%,100%);fill-opacity:1;">
  <use xlink:href="#glyph0-1" x="107.832031" y="221.838867"/>
  <use xlink:href="#glyph0-3" x="115.81543" y="221.838867"/>
</g>
<path style="fill:none;stroke-width:1.2;stroke-linecap:butt;stroke-linejoin:miter;stroke:rgb(0%,0%,0%);stroke-opacity:1;stroke-miterlimit:10;" d="M 132.496094 197.042969 L 159.355469 200.777344 "/>
<path style="fill:none;stroke-width:1.2;stroke-linecap:butt;stroke-linejoin:miter;stroke:rgb(0%,0%,0%);stroke-opacity:1;stroke-miterlimit:10;" d="M 159.355469 200.777344 L 176.019531 179.382812 "/>
<path style="fill:none;stroke-width:1.2;stroke-linecap:butt;stroke-linejoin:miter;stroke:rgb(0%,0%,0%);stroke-opacity:1;stroke-miterlimit:10;" d="M 176.019531 179.382812 L 168.503906 153.324219 "/>
<path style="fill:none;stroke-width:1.2;stroke-linecap:butt;stroke-linejoin:miter;stroke:rgb(0%,0%,0%);stroke-opacity:1;stroke-miterlimit:10;" d="M 181.398438 175.007812 L 175.386719 154.160156 "/>
<path style="fill:none;stroke-width:1.2;stroke-linecap:butt;stroke-linejoin:miter;stroke:rgb(0%,0%,0%);stroke-opacity:1;stroke-miterlimit:10;" d="M 203.125 180.285156 L 176.019531 179.382812 "/>
<path style="fill:none;stroke-width:1.2;stroke-linecap:butt;stroke-linejoin:miter;stroke:rgb(0%,0%,0%);stroke-opacity:1;stroke-miterlimit:10;" d="M 168.503906 153.324219 L 179.734375 145.726562 "/>
<path style="fill:none;stroke-width:1.2;stroke-linecap:butt;stroke-linejoin:miter;stroke:rgb(0%,0%,100%);stroke-opacity:1;stroke-miterlimit:10;" d="M 179.734375 145.726562 L 190.964844 138.125 "/>
<path style="fill:none;stroke-width:1.2;stroke-linecap:butt;stroke-linejoin:miter;stroke:rgb(0%,0%,100%);stroke-opacity:1;stroke-miterlimit:10;" d="M 190.964844 138.125 L 201.664062 146.457031 "/>
<path style="fill:none;stroke-width:1.2;stroke-linecap:butt;stroke-linejoin:miter;stroke:rgb(0%,0%,0%);stroke-opacity:1;stroke-miterlimit:10;" d="M 201.664062 146.457031 L 212.359375 154.789062 "/>
<path style=" stroke:none;fill-rule:nonzero;fill:rgb(100%,100%,100%);fill-opacity:1;" d="M 182.964844 131.625 L 199.964844 131.625 L 199.964844 144.625 L 182.964844 144.625 Z M 182.964844 131.625 "/>
<g style="fill:rgb(0%,0%,100%);fill-opacity:1;">
  <use xlink:href="#glyph0-1" x="182.964844" y="141.526367"/>
  <use xlink:href="#glyph0-3" x="190.948242" y="141.526367"/>
</g>
<path style="fill:none;stroke-width:1.2;stroke-linecap:butt;stroke-linejoin:miter;stroke:rgb(0%,0%,0%);stroke-opacity:1;stroke-miterlimit:10;" d="M 212.359375 154.789062 L 203.125 180.285156 "/>
<path style="fill:none;stroke-width:1.2;stroke-linecap:butt;stroke-linejoin:miter;stroke:rgb(0%,0%,0%);stroke-opacity:1;stroke-miterlimit:10;" d="M 217.4375 159.511719 L 210.046875 179.910156 "/>
<path style="fill:none;stroke-width:1.2;stroke-linecap:butt;stroke-linejoin:miter;stroke:rgb(0%,0%,0%);stroke-opacity:1;stroke-miterlimit:10;" d="M 239.058594 150.039062 L 212.359375 154.789062 "/>
<path style="fill:none;stroke-width:1.2;stroke-linecap:butt;stroke-linejoin:miter;stroke:rgb(0%,0%,0%);stroke-opacity:1;stroke-miterlimit:10;" d="M 203.125 180.285156 L 220.585938 201.035156 "/>
<path style="fill:none;stroke-width:1.2;stroke-linecap:butt;stroke-linejoin:miter;stroke:rgb(0%,0%,0%);stroke-opacity:1;stroke-miterlimit:10;" d="M 220.585938 201.035156 L 247.285156 196.285156 "/>
<path style="fill:none;stroke-width:1.2;stroke-linecap:butt;stroke-linejoin:miter;stroke:rgb(0%,0%,0%);stroke-opacity:1;stroke-miterlimit:10;" d="M 222.140625 194.277344 L 243.5 190.476562 "/>
<path style="fill:none;stroke-width:1.2;stroke-linecap:butt;stroke-linejoin:miter;stroke:rgb(0%,0%,0%);stroke-opacity:1;stroke-miterlimit:10;" d="M 247.285156 196.285156 L 256.523438 170.785156 "/>
<path style="fill:none;stroke-width:1.2;stroke-linecap:butt;stroke-linejoin:miter;stroke:rgb(0%,0%,0%);stroke-opacity:1;stroke-miterlimit:10;" d="M 247.285156 196.285156 L 256.019531 206.65625 "/>
<path style="fill:none;stroke-width:1.2;stroke-linecap:butt;stroke-linejoin:miter;stroke:rgb(100%,0%,0%);stroke-opacity:1;stroke-miterlimit:10;" d="M 256.019531 206.65625 L 264.75 217.03125 "/>
<path style="fill:none;stroke-width:1.2;stroke-linecap:butt;stroke-linejoin:miter;stroke:rgb(0%,0%,0%);stroke-opacity:1;stroke-miterlimit:10;" d="M 256.523438 170.785156 L 239.058594 150.039062 "/>
<path style="fill:none;stroke-width:1.2;stroke-linecap:butt;stroke-linejoin:miter;stroke:rgb(0%,0%,0%);stroke-opacity:1;stroke-miterlimit:10;" d="M 249.894531 172.820312 L 235.925781 156.222656 "/>
<path style="fill:none;stroke-width:1.2;stroke-linecap:butt;stroke-linejoin:miter;stroke:rgb(100%,0%,0%);stroke-opacity:1;stroke-miterlimit:10;" d="M 264.75 217.03125 L 260.132812 229.78125 "/>
<path style="fill:none;stroke-width:1.2;stroke-linecap:butt;stroke-linejoin:miter;stroke:rgb(0%,0%,0%);stroke-opacity:1;stroke-miterlimit:10;" d="M 260.132812 229.78125 L 255.515625 242.527344 "/>
<path style=" stroke:none;fill-rule:nonzero;fill:rgb(100%,100%,100%);fill-opacity:1;" d="M 260.75 210.53125 L 269.75 210.53125 L 269.75 223.53125 L 260.75 223.53125 Z M 260.75 210.53125 "/>
<g style="fill:rgb(100%,0%,0%);fill-opacity:1;">
  <use xlink:href="#glyph0-2" x="260.75" y="220.432617"/>
</g>
</g>
</svg>

<svg xmlns="http://www.w3.org/2000/svg" xmlns:xlink="http://www.w3.org/1999/xlink" width="300pt" height="300pt" viewBox="0 0 300 300"><defs><symbol overflow="visible"><path d="M.547 1.938V-7.75h5.5v9.688zm.625-.61h4.266v-8.47H1.171zm0 0"/></symbol><symbol overflow="visible" id="a"><path d="M1.078-8.016h1.47l3.546 6.704v-6.704h1.062V0H5.688L2.124-6.703V0H1.078zm0 0"/></symbol><symbol overflow="visible" id="b"><path d="M4.328-7.28c-.78 0-1.406.296-1.875.89-.46.585-.687 1.382-.687 2.39 0 1.012.226 1.813.687 2.406.47.586 1.094.875 1.875.875.79 0 1.414-.288 1.875-.874.457-.593.688-1.394.688-2.406 0-1.008-.23-1.805-.687-2.39-.46-.594-1.086-.89-1.875-.89zm0-.892c1.125 0 2.024.383 2.703 1.14C7.708-6.28 8.048-5.27 8.048-4c0 1.262-.34 2.273-1.016 3.03C6.353-.22 5.454.157 4.33.157S2.3-.22 1.625-.97c-.668-.75-1-1.757-1-3.03 0-1.27.332-2.28 1-3.03.676-.76 1.578-1.142 2.703-1.142zm0 0"/></symbol><symbol overflow="visible" id="c"><path d="M1.078-8.016h1.094v3.282H6.11v-3.282h1.077V0H6.11v-3.813H2.17V0H1.078zm0 0"/></symbol></defs><g><path fill="#fff" d="M0 0h300v300H0z"/><path d="M151.895 57.473l-8.333 10.695" stroke-width="1.2" stroke="#000" stroke-miterlimit="10" fill="none"/><path d="M143.563 68.168l-8.333 10.7M135.23 78.867L121.8 77" stroke-width="1.2" stroke="#00f" stroke-miterlimit="10" fill="none"/><path d="M121.8 77l-13.43-1.867" stroke-width="1.2" stroke="#000" stroke-miterlimit="10" fill="none"/><path d="M135.23 78.867l5.098 12.563" stroke-width="1.2" stroke="#00f" stroke-miterlimit="10" fill="none"/><path d="M140.328 91.43l5.102 12.566" stroke-width="1.2" stroke="#000" stroke-miterlimit="10" fill="none"/><path d="M131.23 72.367h8v13h-8zm0 0" fill="#fff"/><use xlink:href="#a" x="131.23" y="82.269" fill="#00f"/><path d="M144.988 107.156l13.43 1.867" stroke-width="1.2" stroke="#000" stroke-miterlimit="10" fill="none"/><path d="M158.418 109.023l13.43 1.864" stroke-width="1.2" stroke="#f00" stroke-miterlimit="10" fill="none"/><path d="M145.867 100.836l13.43 1.867" stroke-width="1.2" stroke="#000" stroke-miterlimit="10" fill="none"/><path d="M159.297 102.703l13.43 1.863" stroke-width="1.2" stroke="#f00" stroke-miterlimit="10" fill="none"/><path d="M145.43 103.996l-16.664 21.395" stroke-width="1.2" stroke="#000" stroke-miterlimit="10" fill="none"/><path d="M168.29 101.227h9v13h-9zm0 0" fill="#fff"/><use xlink:href="#b" x="168.289" y="111.128" fill="#f00"/><path d="M128.766 125.39l10.195 25.13M123.87 130.3l8.16 20.106M101.902 121.656l26.864 3.735M138.96 150.52l-16.663 21.394M122.297 171.914l-26.86-3.734M120.492 165.223l-21.488-2.99M95.438 168.18l-10.196-25.13M95.438 168.18l-16.665 21.398M85.242 143.05l16.66-21.394M91.94 144.832l13.333-17.113M78.773 189.578l-26.86-3.734M75.21 195.523l-21.487-2.988M88.973 214.707l-10.2-25.13M51.914 185.844l-8.332 10.7" stroke-width="1.2" stroke="#000" stroke-miterlimit="10" fill="none"/><path d="M43.582 196.543l-8.332 10.695M35.25 207.238l5.098 12.567" stroke-width="1.2" stroke="#00f" stroke-miterlimit="10" fill="none"/><path d="M40.348 219.805l5.1 12.562" stroke-width="1.2" stroke="#000" stroke-miterlimit="10" fill="none"/><path d="M42.184 207.352l4.078 10.05" stroke-width="1.2" stroke="#00f" stroke-miterlimit="10" fill="none"/><path d="M46.262 217.402l4.078 10.055" stroke-width="1.2" stroke="#000" stroke-miterlimit="10" fill="none"/><path d="M31.25 200.738h8v13h-8zm0 0" fill="#fff"/><use xlink:href="#a" x="31.25" y="210.64" fill="#00f"/><path d="M45.45 232.367l13.43 1.867" stroke-width="1.2" stroke="#000" stroke-miterlimit="10" fill="none"/><path d="M58.88 234.234l13.43 1.868M72.31 236.102l8.33-10.7" stroke-width="1.2" stroke="#00f" stroke-miterlimit="10" fill="none"/><path d="M80.64 225.402l8.333-10.695" stroke-width="1.2" stroke="#000" stroke-miterlimit="10" fill="none"/><path d="M68.94 230.04l6.665-8.56" stroke-width="1.2" stroke="#00f" stroke-miterlimit="10" fill="none"/><path d="M75.605 221.48l6.665-8.554" stroke-width="1.2" stroke="#000" stroke-miterlimit="10" fill="none"/><path d="M68.31 229.602h8v13h-8zm0 0" fill="#fff"/><use xlink:href="#a" x="68.309" y="239.503" fill="#00f"/><path d="M88.973 214.707l13.43 1.863" stroke-width="1.2" stroke="#000" stroke-miterlimit="10" fill="none"/><path d="M102.402 216.57l13.43 1.868M115.832 218.438l8.332-10.696" stroke-width="1.2" stroke="#00f" stroke-miterlimit="10" fill="none"/><path d="M124.164 207.742l8.332-10.7" stroke-width="1.2" stroke="#000" stroke-miterlimit="10" fill="none"/><path d="M107.832 211.938h17v13h-17zm0 0" fill="#fff"/><g fill="#00f"><use xlink:href="#a" x="107.832" y="221.839"/><use xlink:href="#c" x="115.815" y="221.839"/></g><path d="M132.496 197.043l26.86 3.734M159.355 200.777l16.665-21.394M176.02 179.383l-7.516-26.06M181.398 175.008l-6.01-20.848M203.125 180.285l-27.105-.902M168.504 153.324l11.23-7.597" stroke-width="1.2" stroke="#000" stroke-miterlimit="10" fill="none"/><path d="M179.734 145.727l11.23-7.602M190.965 138.125l10.7 8.332" stroke-width="1.2" stroke="#00f" stroke-miterlimit="10" fill="none"/><path d="M201.664 146.457l10.695 8.332" stroke-width="1.2" stroke="#000" stroke-miterlimit="10" fill="none"/><path d="M182.965 131.625h17v13h-17zm0 0" fill="#fff"/><g fill="#00f"><use xlink:href="#a" x="182.965" y="141.526"/><use xlink:href="#c" x="190.948" y="141.526"/></g><path d="M212.36 154.79l-9.235 25.495M217.438 159.512l-7.39 20.398M239.06 150.04l-26.7 4.75M203.125 180.285l17.46 20.75M220.586 201.035l26.7-4.75M222.14 194.277l21.36-3.8M247.285 196.285l9.238-25.5M247.285 196.285l8.735 10.37" stroke-width="1.2" stroke="#000" stroke-miterlimit="10" fill="none"/><path d="M256.02 206.656l8.73 10.375" stroke-width="1.2" stroke="#f00" stroke-miterlimit="10" fill="none"/><path d="M256.523 170.785L239.06 150.04M249.895 172.82l-13.97-16.597" stroke-width="1.2" stroke="#000" stroke-miterlimit="10" fill="none"/><path d="M264.75 217.03l-4.617 12.75" stroke-width="1.2" stroke="#f00" stroke-miterlimit="10" fill="none"/><path d="M260.133 229.78l-4.617 12.747" stroke-width="1.2" stroke="#000" stroke-miterlimit="10" fill="none"/><path d="M260.75 210.53h9v13h-9zm0 0" fill="#fff"/><use xlink:href="#b" x="260.75" y="220.433" fill="#f00"/></g></svg>
